assets/icons/tram/tram_T13_carto_RVB.svg

<svg id="tram_T13_carto_RVB" xmlns="http://www.w3.org/2000/svg" width="311.7" height="311.8" viewBox="0 0 311.7 311.8">
	<path id="Tracé_17" data-name="Tracé 17" d="M28.3,311.8A28.338,28.338,0,0,1,0,283.5V28.3A28.338,28.338,0,0,1,28.3,0H283.4a28.338,28.338,0,0,1,28.3,28.3V283.4a28.338,28.338,0,0,1-28.3,28.3H28.3Z" fill="#fff"/>
	<path id="Tracé_18" data-name="Tracé 18" d="M84.5,121.3v89.6H60.4V121.3H26.8V101.7H118v19.6H84.5Zm88,89.6V125.1c-6.6,5.3-17.2,10.4-24.4,13.6L140.7,122c11.4-4.8,25.2-12.1,36-20.3h19V210.9Zm70,2.6c-15.6,0-24.3-3.9-31.6-8.2l8.5-16.9a38.241,38.241,0,0,0,21.5,7.1c12.7,0,20.6-7.4,20.6-16.7,0-12.5-9.6-16.9-20.7-16.9H229.5V143.8h11.4c10.7,0,17.3-5.6,17.3-13.9,0-7-5.3-13.3-16.7-13.3a30.319,30.319,0,0,0-20.3,7.9l-7.9-16.1c9.3-6.2,19.3-9.7,33.1-9.7,22.3,0,35,13.3,35,27.8,0,11.3-6,20.3-17.6,24.6v.3c12.1,2.3,21.2,11.6,21.2,26.9,0,19.3-17.1,35.2-42.5,35.2"/>
	<path id="Tracé_19" data-name="Tracé 19" d="M283.5,56.4H28.3A14.19,14.19,0,0,1,14.1,42.2V28.1A14.19,14.19,0,0,1,28.3,13.9H283.4a14.19,14.19,0,0,1,14.2,14.2V42.3a14.084,14.084,0,0,1-14.1,14.1m14.1,226.8V269a14.19,14.19,0,0,0-14.2-14.2H28.3A14.19,14.19,0,0,0,14.1,269v14.2a14.19,14.19,0,0,0,14.2,14.2H283.4a14.19,14.19,0,0,0,14.2-14.2" fill="#6e491e"/>
</svg>

<?xml version="1.0" encoding="utf-8"?>
<!-- Generator: Adobe Illustrator 26.3.1, SVG Export Plug-In . SVG Version: 6.00 Build 0)  -->
<svg version="1.1" id="Layer_1" xmlns="http://www.w3.org/2000/svg" xmlns:xlink="http://www.w3.org/1999/xlink" x="0px" y="0px"
	 viewBox="0 0 311.8 311.8" style="enable-background:new 0 0 311.8 311.8;" xml:space="preserve">
<style type="text/css">
	.st0{fill:#FFFFFF;}
	.st1{fill:#6E491E;}
</style>
<g>
	<path class="st0" d="M28.3,311.8C12.7,311.8,0,299.1,0,283.5V28.3C0,12.7,12.7,0,28.3,0h255.1c15.6,0,28.3,12.7,28.3,28.3v255.1
		c0,15.6-12.7,28.3-28.3,28.3H28.3z"/>
	<path d="M84.5,121.3v89.6H60.4v-89.6H26.8v-19.6H118v19.6H84.5z M172.5,210.9v-85.8c-6.6,5.3-17.2,10.4-24.4,13.6l-7.4-16.7
		c11.4-4.8,25.2-12.1,36-20.3h19v109.2H172.5z M242.5,213.5c-15.6,0-24.3-3.9-31.6-8.2l8.5-16.9c4.6,3.2,12.2,7.1,21.5,7.1
		c12.7,0,20.6-7.4,20.6-16.7c0-12.5-9.6-16.9-20.7-16.9h-11.3v-18.1h11.4c10.7,0,17.3-5.6,17.3-13.9c0-7-5.3-13.3-16.7-13.3
		c-10.1,0-16.7,4.8-20.3,7.9l-7.9-16.1c9.3-6.2,19.3-9.7,33.1-9.7c22.3,0,35,13.3,35,27.8c0,11.3-6,20.3-17.6,24.6v0.3
		c12.1,2.3,21.2,11.6,21.2,26.9C285,197.6,267.9,213.5,242.5,213.5"/>
	<path class="st1" d="M283.5,56.4H28.3c-7.8,0-14.2-6.3-14.2-14.2V28.1c0-7.8,6.3-14.2,14.2-14.2h255.1c7.8,0,14.2,6.3,14.2,14.2
		v14.2C297.6,50.1,291.3,56.4,283.5,56.4 M297.6,283.2V269c0-7.8-6.3-14.2-14.2-14.2H28.3c-7.8,0-14.2,6.3-14.2,14.2v14.2
		c0,7.8,6.3,14.2,14.2,14.2h255.1C291.3,297.4,297.6,291,297.6,283.2"/>
</g>
</svg>
